X: 15
T: KITTY O'NEIL'S JIG
S: "Community Dances Manual 6", EFDSS, Jack Hamilton ed., 1981 p.7
R: hornpipe
Z: 2010 John Chambers <jc:trillian.mit.edu>
M: 4/4
L: 1/8
K: A
"A"[|](3efg |\
"A"a2g2 a2A2 | "D"f>ed>f "A"e>cA2 | "E7"B2^A2 B2E2 | "A"E>A"E7"G>B "A"A>Ac>e |
"A"a2g2 a2A2 | "D"f>ed>f "A"e>cA2 | "E7"B2^A2 B2E2 | "A"E>A"E7"G>B "A"A2 ||
"B"[|]A>B |\
"A"c2a2 c2c>d | "Bm"B2b2 B2B>c | "D"d>ef>g a2g>f | "E7"e>dc>B "A"c2A2 |
"A"c2a2 c2c>d | "Bm"B2b2 B2B>c | "D"d>cd>e f>ga>f | "E7"(3efe (3dcB "A"A2 |]

%%sep 2 1 500
%%sep 1 1 500

